Papirus/16x16/panel/weather-severe-alert.svg

<?xml version="1.0" encoding="UTF-8" standalone="no"?>
<svg xmlns="http://www.w3.org/2000/svg" viewBox="0 0 16 16">
  <defs>
    <style type="text/css" id="current-color-scheme">
      .ColorScheme-Text {
        color:#d3dae3;
      }
      .ColorScheme-Highlight {
        color:#5294e2;
      }
      </style>
  </defs>
  <path style="fill:currentColor;opacity:1" 
        class="ColorScheme-Text" 
        d="M 5.0976562 1.9980469 L 5.0996094 2 C 4.9446094 1.998 4.7998594 2.00725 4.6308594 2.03125 C 1.9388594 2.42125 2.0058594 5.03125 2.0058594 5.03125 C 0.90285938 5.24225 0.005859375 6.3055 0.005859375 7.4375 C 0.005859375 8.5695 1.1658594 9.583 2.1308594 9.875 C 2.7048594 10.048 3.4433594 9.875 3.4433594 9.875 C 3.7843594 10.551 4.9093594 11 5.6933594 11 C 6.0473594 11 6.3876094 10.942 6.7246094 10.875 L 6.5058594 5.53125 L 6.4746094 5 L 7.0058594 5 L 9.0058594 5 L 9.5351562 5 L 9.5058594 5.53125 L 9.3164062 9.9375 C 10.752406 10.0465 14.108656 10.248047 14.972656 9.8730469 C 16.571656 9.1790469 16.067906 7.0122969 15.003906 6.2792969 C 13.939906 5.5462969 12.566406 6.0605469 12.566406 6.0605469 C 12.566406 6.0605469 12.571406 4.5547969 11.066406 3.8417969 C 9.5614067 3.1287969 8.2851563 4.7167969 8.2851562 4.7167969 C 8.2851562 4.7167969 7.4256563 2.0140469 5.0976562 1.9980469 z "
        />
  <path style="fill:currentColor;opacity:1" 
        class="ColorScheme-Highlight" 
        d="M 7.0019531 6 L 7.2519531 12 L 8.7519531 12 L 9.0019531 6 L 7.0019531 6 z M 7.0019531 13 L 7.0019531 15 L 9.0019531 15 L 9.0019531 13 L 7.0019531 13 z "
        />
</svg>

<?xml version="1.0" encoding="UTF-8" standalone="no"?>
<svg xmlns:dc="http://purl.org/dc/elements/1.1/" xmlns:cc="http://creativecommons.org/ns#" xmlns:rdf="http://www.w3.org/1999/02/22-rdf-syntax-ns#" xmlns:svg="http://www.w3.org/2000/svg" xmlns="http://www.w3.org/2000/svg" height="16" width="16" version="1.1" id="svg2" style="enable-background:new" viewBox="0 0 16 16">
    <metadata id="metadata12">
        <rdf:RDF>
            <cc:Work rdf:about="">
                <dc:format>
                    image/svg+xml
                </dc:format>
                <dc:type rdf:resource="http://purl.org/dc/dcmitype/StillImage"/>
                <dc:title/>
            </cc:Work>
        </rdf:RDF>
    </metadata>
    <path id="path4" style="color:#bebebe;fill:#5294e2;fill-opacity:1" d="m 7.0010644,6 0.25,6 1.5,0 0.25,-6 -2,0 z m 0,7 0,2 2,0 0,-2 -2,0 z"/>
    <path id="path6" style="opacity:1;fill:#d3dae3;fill-opacity:1" d="m 5.0990644,2 c -0.155,-0.002 -0.3,0.007 -0.469,0.031 -2.692,0.39 -2.625,3 -2.625,3 -1.103,0.211 -2,1.274 -2,2.406 0,1.132 1.16,2.146 2.125,2.438 0.574,0.173 1.313,0 1.313,0 0.341,0.676 1.466,1.125 2.25,1.125 0.354,0 0.694,-0.058 1.031,-0.125 l -0.219,-5.344 -0.031,-0.531 0.531,0 2,0 0.531,0 -0.031,0.531 -0.188,4.406 c 1.4359996,0.109 4.7919996,0.312 5.6559996,-0.063 1.599,-0.694 1.095,-2.861 0.031,-3.594 -1.064,-0.733 -2.438,-0.219 -2.438,-0.219 0,0 0.005,-1.506 -1.5,-2.219 -1.5049996,-0.713 -2.7809996,0.875 -2.7809996,0.875 0,0 -0.86,-2.703 -3.188,-2.719 z"/>
</svg>
